X:356
T:Trim Ankled Waltz
M:3/4
L:1/8
C:© Paul Gitlitz 2014
K:F
"C"EG c=B2G |E4 CD|EG c=B2G |"F"F4-FF|!
FA dc2A |"G"=B4A2|G^F GA G=F|"C"E4-ED|!
"C"EG c=B2G |E4-Ec|"Bb"BA Bd .c2|zB "F"A4|!
"Bb"fd BG Bd|"F"=Be dc AF|"Gm"AB DE CG|"F"F4-FC||!
"F"A,2C2F2|A,2C2F2|A,2.C2 zA,|"Gm"B,6|!
"C"E2G2B2|E2G2B2|"Bb"d2.c2 zB|"F"A6|!
"F"F2A2c2|F2A2c2|f2e2^d2|"Bb"d6|!
"Bb"fd BG Bd|"F"=Be dc B_B|"F"A3 "C"G3|"F"F6|]
